X: 550
T: Chuan menzi
%%abc-version 2.0
%%abcx-abcm2ps-target-version 5.9.1 (29 Sep 2008)
%%abc-creator hum2abc beta
%%abcx-conversion-date 2013/10/02 07:52:30
%%abc-edited-by Helmut Schaffrath
%%humdrum-veritas 1646274420
%%humdrum-veritas-data 1700665261
%%continueall 1
%%barnumbers 0
L: 1/8
M: 2/4
K: A
B2e e [I:setbarnb 1]| 
d cB2 | 
B2e e | 
d cB2 | 
e> f e B | 
c B A G | 
F E F G | 
E4 | 
B2c B | 
c A G F | 
E2e2 | 
d cB2 | 
e f e B | 
c B A G | 
F E F G | 
E4 |]  



